!!!OTL: WAS KANN EINEN MEHR ERGOETZEN
!!!ARE: Europa, Mitteleuropa, Deutschland, Brandenburg; Sachsen; Schlesien
!!!SCT: E1451
!!!YEM: Copyright 1995, estate of Helmut Schaffrath.
**kern
*ICvox
*Ivox
*M4/4
*k[f#]
*G:
=1
{4g
8g
8a
4b
4b
=2
4a
4a
4g
4d}
=3
{4b
8b
8cc
4dd
4dd
=4
4cc
4cc
2b}
=5
{4g
8g
8a
4b
4b
=6
4a
4a
4g
4d}
=7
{4b
8b
8cc
4dd
4dd
=8
4cc
4cc
2b}
=9
{4dd
4dd
4ee
4ee
=10
4cc
8cc
8ee
2dd}
=11
{4b
4b
4cc
4r
=12
4a
4a
4b
4r}
=13
{4g
8g
8b
4dd
4dd
=14
4cc
4cc
4b
4r}
==
!!!AGN: Staende -, Jaeger - Lied
!!!ONB: ESAC (Essen Associative Code) Database: ERK3
!!!AMT: simple quadruple
!!!AIN: vox
!!!EED: Helmut Schaffrath
!!!EEV: 1.0
*-
